X: 2
T: The Laird Of Drumblair
R: strathspey
M: 4/4
L: 1/8
K: Amaj
E>G|:A2c>A E>Ac>e|a2g>a f>ae>c|(3def (3efg (3aed (3cBA|(3Bcd (3cBA (3G FE (3dcB|A2c>A E>Ac>e|a2g>a f>ae>c|(3def (3efg (3aed (3cBA|1 (3GFE (3dcB A2 E>G:|[2 (3GFE (3dcB A2 e>g|:a2e>a c>aA>a|(3cBA e>A a>ec>e|b2f>b ^d>bB>f|(3^dcB f>B b>f^d>f|a2e>a c>aA>a|(3cBA e>A a>ec>e|(3def (3efg (3aed (3cBA|[1 (3GFE (3dcB A2 e>g:|2 (3GFE (3dcB A2||


Tune 170	Setting 22128

